static/customers.svg

<svg width="90" height="86" viewBox="0 0 90 86" fill="none" xmlns="http://www.w3.org/2000/svg">
<path d="M46.7578 69.3672C46.7578 70.3381 45.9709 71.125 45 71.125C44.0291 71.125 43.2422 70.3381 43.2422 69.3672C43.2422 68.3963 44.0291 67.6094 45 67.6094C45.9709 67.6094 46.7578 68.3963 46.7578 69.3672Z" fill="#1D4283"/>
<path d="M84.1992 53.5469C84.1992 47.731 79.4682 43 73.6523 43C67.8365 43 63.1055 47.731 63.1055 53.5469C63.1055 59.3628 67.8365 64.0938 73.6523 64.0938C79.4682 64.0938 84.1992 59.3628 84.1992 53.5469ZM73.6523 60.5781C69.7755 60.5781 66.6211 57.4237 66.6211 53.5469C66.6211 49.6701 69.7755 46.5156 73.6523 46.5156C77.5291 46.5156 80.6836 49.6701 80.6836 53.5469C80.6836 57.4237 77.5291 60.5781 73.6523 60.5781Z" fill="#1D4283"/>
<path d="M73.6523 64.0938C69.2228 64.0938 64.8056 65.9326 61.7967 68.914C57.8362 63.7092 51.7291 60.5781 45 60.5781C38.5558 60.5781 32.3115 63.5183 28.204 68.914C25.1944 65.9333 20.7779 64.0938 16.3477 64.0938C7.4865 64.0938 0 71.3385 0 79.9141V83.4297C0 84.4006 0.786896 85.1875 1.75781 85.1875H88.2422C89.2131 85.1875 90 84.4006 90 83.4297V79.9141C90 71.3385 82.5135 64.0938 73.6523 64.0938ZM3.51562 79.9141C3.51562 73.244 9.39194 67.6094 16.3477 67.6094C20.1537 67.6094 23.9282 69.2958 26.2649 71.9764C24.7199 74.9606 23.9062 78.2867 23.9062 81.6719H3.51562V79.9141ZM45 64.0938C54.7813 64.0938 62.5781 72.03 62.5781 81.6719H27.4219C27.4219 71.9016 35.378 64.0938 45 64.0938ZM86.4844 81.6719H66.0938C66.0938 78.2867 65.2801 74.9606 63.7351 71.9764C66.0718 69.2958 69.8463 67.6094 73.6523 67.6094C80.6081 67.6094 86.4844 73.244 86.4844 79.9141V81.6719Z" fill="#1D4283"/>
<path d="M26.8945 53.5469C26.8945 47.731 22.1635 43 16.3477 43C10.5318 43 5.80078 47.731 5.80078 53.5469C5.80078 59.3628 10.5318 64.0938 16.3477 64.0938C22.1635 64.0938 26.8945 59.3628 26.8945 53.5469ZM16.3477 60.5781C12.4709 60.5781 9.31641 57.4237 9.31641 53.5469C9.31641 49.6701 12.4709 46.5156 16.3477 46.5156C20.2245 46.5156 23.3789 49.6701 23.3789 53.5469C23.3789 57.4237 20.2245 60.5781 16.3477 60.5781Z" fill="#1D4283"/>
<path d="M59.0625 46.5156C59.0625 38.7613 52.7543 32.4531 45 32.4531C37.2457 32.4531 30.9375 38.7613 30.9375 46.5156C30.9375 54.2699 37.2457 60.5781 45 60.5781C52.7543 60.5781 59.0625 54.2699 59.0625 46.5156ZM45 57.0625C39.1841 57.0625 34.4531 52.3315 34.4531 46.5156C34.4531 40.6997 39.1841 35.9688 45 35.9688C50.8159 35.9688 55.5469 40.6997 55.5469 46.5156C55.5469 52.3315 50.8159 57.0625 45 57.0625Z" fill="#1D4283"/>
<path d="M58.9114 11.036C58.7048 10.3994 58.1548 9.93596 57.4921 9.83983L49.9102 8.73914L46.5154 1.79852C46.2209 1.19496 45.6084 0.8125 44.9368 0.8125C44.2653 0.8125 43.6528 1.19496 43.3575 1.79784L39.9634 8.73914L32.3815 9.83914C31.7189 9.93527 31.1689 10.3994 30.9622 11.036C30.7555 11.6725 30.9279 12.3708 31.4072 12.8377L36.8976 18.1888L35.6019 25.7453C35.4886 26.4045 35.7598 27.0712 36.3016 27.464C36.8399 27.8553 37.5568 27.911 38.1528 27.5979L44.9368 24.0307L51.7236 27.5979C52.3155 27.9096 53.0331 27.8574 53.5748 27.464C54.1159 27.0705 54.3871 26.4045 54.2738 25.7446L52.9768 18.1888L58.4665 12.8377C58.9458 12.3708 59.1181 11.6725 58.9114 11.036ZM49.8601 16.3163C49.446 16.72 49.2565 17.3023 49.3547 17.8722L50.2055 22.8291L45.7546 20.489C45.2424 20.2198 44.6306 20.2198 44.1183 20.489L39.6689 22.8291L40.5189 17.8722C40.6164 17.3016 40.4269 16.72 40.0129 16.3163L36.4121 12.8068L41.3869 12.0845C41.9623 12.0014 42.4587 11.6388 42.7135 11.117L44.9368 6.5714L47.1595 11.117C47.4149 11.6395 47.9114 12.0014 48.4861 12.0845L53.4615 12.8068L49.8601 16.3163Z" fill="#1D4283"/>
<path d="M85.1852 24.2106C84.9785 23.5741 84.4285 23.1106 83.7659 23.0145L78.6291 22.2681L76.3323 17.6127C76.0363 17.0125 75.4259 16.6328 74.7564 16.6328C74.0876 16.6328 73.4758 17.0125 73.1799 17.6127L70.8817 22.2681L65.7442 23.0145C65.0823 23.1106 64.5323 23.5741 64.3256 24.2106C64.1182 24.8472 64.2906 25.5455 64.7699 26.0124L68.4867 29.6372L67.6091 34.7527C67.4965 35.4119 67.7671 36.0779 68.3088 36.4714C68.8499 36.8648 69.5675 36.917 70.1593 36.606L74.7558 34.191L79.3508 36.606C79.9427 36.917 80.6609 36.8648 81.202 36.4714C81.7431 36.0786 82.0136 35.4119 81.901 34.7527L81.0235 29.6372L84.741 26.0124C85.2202 25.5455 85.3919 24.8472 85.1852 24.2106ZM77.9081 27.7654C77.4934 28.1691 77.3046 28.7507 77.4028 29.3206L77.834 31.8365L75.5742 30.6493C75.062 30.3801 74.4502 30.3801 73.9386 30.6493L71.6768 31.8372L72.1087 29.3206C72.2062 28.7507 72.0174 28.1691 71.6034 27.7654L69.7741 25.9815L72.3017 25.6148C72.8743 25.5317 73.3694 25.1719 73.6255 24.6535L74.7558 22.3636L75.8853 24.6528C76.1414 25.1719 76.6365 25.5317 77.2091 25.6148L79.7367 25.9815L77.9081 27.7654Z" fill="#1D4283"/>
<path d="M25.4196 24.2106C25.2129 23.5741 24.6629 23.1106 24.0003 23.0145L18.8635 22.2681L16.5667 17.6127C16.2707 17.0125 15.6603 16.6328 14.9908 16.6328C14.3214 16.6328 13.7102 17.0125 13.4143 17.6127L11.1161 22.2681L5.9786 23.0145C5.31668 23.1106 4.76667 23.5741 4.55999 24.2106C4.35263 24.8472 4.52498 25.5455 5.00425 26.0124L8.72107 29.6372L7.84422 34.7527C7.73092 35.4119 8.00215 36.0779 8.54323 36.4714C9.0843 36.8648 9.80185 36.917 10.3944 36.606L14.9901 34.191L19.5852 36.606C20.1812 36.9191 20.898 36.8628 21.4364 36.4714C21.9774 36.0786 22.2487 35.4119 22.1354 34.7527L21.2578 29.6372L24.9753 26.0124C25.4546 25.5455 25.6263 24.8472 25.4196 24.2106ZM18.1418 27.7654C17.7278 28.1691 17.539 28.7507 17.6365 29.3207L18.0684 31.8365L15.8079 30.6493C15.2964 30.3801 14.6846 30.3801 14.173 30.6493L11.9105 31.8372L12.3424 29.3207C12.4406 28.7507 12.2511 28.1691 11.8371 27.7654L10.0078 25.9815L12.5361 25.6148C13.108 25.5317 13.6031 25.1719 13.8592 24.6535L14.9895 22.3636L16.119 24.6528C16.3751 25.1719 16.8702 25.5317 17.4428 25.6148L19.9704 25.9815L18.1418 27.7654Z" fill="#1D4283"/>
<path d="M52.7028 69.9108C51.8912 69.3772 50.8015 69.6031 50.2687 70.4147C49.7351 71.2257 49.961 72.3154 50.7727 72.8489C52.3979 73.9166 53.6971 75.4053 54.5293 77.1535C54.9454 78.0289 55.9932 78.4032 56.8714 77.985C57.7483 77.5682 58.1205 76.519 57.7037 75.6429C56.5954 73.3138 54.8658 71.3314 52.7028 69.9108Z" fill="#1D4283"/>
</svg>

<svg width="90" height="86" fill="none" xmlns="http://www.w3.org/2000/svg"><path d="M46.758 69.367a1.758 1.758 0 1 1-3.516 0 1.758 1.758 0 0 1 3.516 0zM84.2 53.547C84.2 47.73 79.467 43 73.651 43s-10.547 4.731-10.547 10.547c0 5.816 4.732 10.547 10.547 10.547 5.816 0 10.547-4.731 10.547-10.547zm-10.548 7.031a7.04 7.04 0 0 1-7.03-7.031 7.04 7.04 0 0 1 7.03-7.031 7.04 7.04 0 0 1 7.032 7.03 7.04 7.04 0 0 1-7.032 7.032z" fill="#1D4283"/><path d="M73.652 64.094c-4.43 0-8.846 1.839-11.855 4.82-3.96-5.205-10.068-8.336-16.797-8.336a21.057 21.057 0 0 0-16.796 8.336c-3.01-2.98-7.426-4.82-11.856-4.82C7.487 64.094 0 71.339 0 79.914v3.516c0 .97.787 1.757 1.758 1.757h86.484c.971 0 1.758-.786 1.758-1.757v-3.516c0-8.576-7.487-15.82-16.348-15.82zM3.516 79.914c0-6.67 5.876-12.305 12.832-12.305 3.806 0 7.58 1.687 9.917 4.367a21.094 21.094 0 0 0-2.359 9.696H3.516v-1.758zM45 64.094c9.781 0 17.578 7.936 17.578 17.578H27.422c0-9.77 7.956-17.578 17.578-17.578zm41.484 17.578h-20.39c0-3.385-.814-6.711-2.359-9.696 2.337-2.68 6.111-4.367 9.917-4.367 6.956 0 12.832 5.635 12.832 12.305v1.758z" fill="#1D4283"/><path d="M26.895 53.547C26.895 47.73 22.163 43 16.348 43 10.532 43 5.8 47.731 5.8 53.547c0 5.816 4.73 10.547 10.547 10.547 5.816 0 10.547-4.731 10.547-10.547zm-10.547 7.031a7.04 7.04 0 0 1-7.032-7.031 7.04 7.04 0 0 1 7.032-7.031 7.04 7.04 0 0 1 7.03 7.03 7.04 7.04 0 0 1-7.03 7.032zM59.063 46.516c0-7.755-6.309-14.063-14.063-14.063-7.754 0-14.063 6.308-14.063 14.063 0 7.754 6.309 14.062 14.063 14.062 7.754 0 14.063-6.308 14.063-14.062zM45 57.063c-5.816 0-10.547-4.732-10.547-10.547 0-5.816 4.731-10.547 10.547-10.547 5.816 0 10.547 4.73 10.547 10.547 0 5.816-4.731 10.547-10.547 10.547zM58.911 11.036a1.756 1.756 0 0 0-1.419-1.196l-7.582-1.1-3.395-6.941a1.756 1.756 0 0 0-3.157-.001l-3.395 6.941-7.581 1.1a1.758 1.758 0 0 0-.975 2.999l5.49 5.35-1.295 7.557a1.757 1.757 0 0 0 2.55 1.853l6.785-3.567 6.787 3.567a1.757 1.757 0 0 0 2.55-1.853l-1.297-7.556 5.49-5.351c.479-.467.651-1.165.444-1.802zm-9.05 5.28a1.757 1.757 0 0 0-.506 1.556l.85 4.957-4.45-2.34a1.759 1.759 0 0 0-1.637 0l-4.45 2.34.85-4.957a1.76 1.76 0 0 0-.505-1.556l-3.6-3.51 4.974-.721a1.756 1.756 0 0 0 1.327-.968l2.223-4.546 2.223 4.546c.255.522.751.884 1.326.967l4.976.723-3.602 3.51zM85.185 24.21a1.757 1.757 0 0 0-1.42-1.195l-5.136-.747-2.297-4.655a1.756 1.756 0 0 0-3.152 0l-2.298 4.655-5.138.747a1.757 1.757 0 0 0-.974 2.997l3.717 3.625-.878 5.116a1.758 1.758 0 0 0 2.55 1.853l4.597-2.415 4.595 2.415a1.758 1.758 0 0 0 2.55-1.853l-.877-5.116 3.717-3.625c.48-.466.65-1.165.444-1.801zm-7.277 3.555a1.754 1.754 0 0 0-.505 1.556l.431 2.515-2.26-1.187a1.757 1.757 0 0 0-1.635 0l-2.262 1.188.432-2.516a1.758 1.758 0 0 0-.506-1.556l-1.829-1.784 2.528-.366a1.759 1.759 0 0 0 1.323-.961l1.13-2.29 1.13 2.289c.256.519.751.879 1.324.962l2.528.367-1.829 1.783zM25.42 24.21A1.757 1.757 0 0 0 24 23.016l-5.137-.747-2.296-4.655a1.756 1.756 0 0 0-3.153 0l-2.298 4.655-5.137.747a1.757 1.757 0 0 0-.975 2.997l3.717 3.625-.877 5.116a1.757 1.757 0 0 0 2.55 1.853l4.596-2.415 4.595 2.415a1.757 1.757 0 0 0 2.55-1.853l-.877-5.116 3.717-3.625c.48-.466.651-1.165.445-1.801zm-7.278 3.555a1.758 1.758 0 0 0-.505 1.556l.431 2.515-2.26-1.187a1.756 1.756 0 0 0-1.635 0l-2.262 1.188.431-2.516a1.756 1.756 0 0 0-.505-1.556l-1.83-1.784 2.53-.366a1.759 1.759 0 0 0 1.322-.961l1.13-2.29 1.13 2.289c.256.519.751.879 1.324.962l2.527.367-1.828 1.783zM52.703 69.91a1.757 1.757 0 1 0-1.93 2.939 10.609 10.609 0 0 1 3.756 4.304 1.758 1.758 0 0 0 3.174-1.51 14.118 14.118 0 0 0-5-5.732z" fill="#1D4283"/></svg>
